**harmony	**harte	**kern	**silbe	**kern	**silbe	**rhyme	**timestamp	**phrase
*M4/4	*M4/4	*ICvox	*	*ICvox	*	*	*	*
*	*	*VRlead*VRharmonize	*	*VRlead*VRharmonize	*	*	*	*
*	*	*Hstimme	*	*Nstimme	*	*	*	*
*G:	*G:	*G:	*	*G:	*	*	*	*
*	*	*M4/4	*	*M4/4	*	*	*	*
*	*	*clefG2	*	*clefG2	*	*	*	*
1r;	1r	r;	.	r;	.	.	0	.
=1	=1	=1	=1	=1	=1	=1	=1	=1
*>Letter>A	*>Letter>A	*>Letter>A	*>Letter>A	*>Letter>A	*>Letter>A	*>Letter>A	*>Letter>A	*>Letter>A
*>Label>Intro	*>Label>Intro	*>Label>Intro	*>Label>Intro	*>Label>Intro	*>Label>Intro	*>Label>Intro	*>Label>Intro	*>Label>Intro
1GM	G:maj	1r	.	1r	.	.	0.859	newline
=2	=2	=2	=2	=2	=2	=2	=2	=2
1GM	G:maj	1r	.	1r	.	.	3.405	.
=3	=3	=3	=3	=3	=3	=3	=3	=3
1GM	G:maj	1r	.	1r	.	.	5.95	.
=4	=4	=4	=4	=4	=4	=4	=4	=4
1GM	G:maj	2r	.	1r	.	.	8.496	.
.	.	8.r	.	.	.	.	.	.
.	.	[16B	When	.	.	.	.	.
.	.	16B]	_	.	.	.	.	.
.	.	16d	the	.	.	.	.	.
.	.	[8e	night	.	.	A	.	.
=5	=5	=5	=5	=5	=5	=5	=5	=5
*>Letter>B	*>Letter>B	*>Letter>B	*>Letter>B	*>Letter>B	*>Letter>B	*>Letter>B	*>Letter>B	*>Letter>B
*>Label>Verse	*>Label>Verse	*>Label>Verse	*>Label>Verse	*>Label>Verse	*>Label>Verse	*>Label>Verse	*>Label>Verse	*>Label>Verse
1GM	G:maj	8e]	_	1r	.	.	11.041	newline
.	.	8r	.	.	.	.	.	.
.	.	4r	.	.	.	.	.	.
.	.	4r	.	.	.	.	.	.
.	.	[4e	has	.	.	.	.	.
=6	=6	=6	=6	=6	=6	=6	=6	=6
1GM	G:maj	8e]	_	1r	.	.	13.54	.
.	.	16f	_	.	.	.	.	.
.	.	[16e	_	.	.	.	.	.
.	.	8e]	_	.	.	.	.	.
.	.	[8d	come,	.	.	.	.	.
.	.	16d]	_	.	.	.	.	.
.	.	16e	_	.	.	.	.	.
.	.	8B	_	.	.	.	.	.
.	.	8B	_	.	.	.	.	.
.	.	16A	_	.	.	.	.	.
.	.	[16G	_	.	.	.	.	.
=7	=7	=7	=7	=7	=7	=7	=7	=7
1Em	E:min	8G]	_	8r	.	.	16.039	.
.	.	8r	.	8A	Hmm.	.	.	.
.	.	4r	.	2B	_	.	.	.
.	.	4r	.	.	.	.	.	.
.	.	16G	and	4r	.	.	.	.
.	.	16A	the	.	.	.	.	.
.	.	[8B	land	.	.	.	.	.
=8	=8	=8	=8	=8	=8	=8	=8	=8
1Em	E:min	8B]	_	1r	.	.	18.538	.
.	.	8B	is	.	.	.	.	.
.	.	8B	so	.	.	.	.	.
.	.	[8A	dark,	.	.	.	.	.
.	.	8A]	_	.	.	.	.	.
.	.	16B	_	.	.	.	.	.
.	.	[16A	_	.	.	.	.	.
.	.	16A]	_	.	.	.	.	.
.	.	[8.G	_	.	.	.	.	.
=9	=9	=9	=9	=9	=9	=9	=9	=9
1CM	C:maj	4G]	_	1r	.	.	21.037	newline
.	.	8.r	.	.	.	.	.	.
.	.	[16G	and	.	.	.	.	.
.	.	16G]	_	.	.	.	.	.
.	.	16A	the	.	.	.	.	.
.	.	16A	moon	.	.	.	.	.
.	.	[16E	_	.	.	.	.	.
.	.	4E]	_	.	.	.	.	.
=10	=10	=10	=10	=10	=10	=10	=10	=10
1DM	D:maj	4r	.	1r	.	.	23.522	.
.	.	8r	.	.	.	.	.	.
.	.	16G	is	.	.	.	.	.
.	.	16A	the	.	.	.	.	.
.	.	8A	on-	.	.	.	.	.
.	.	16G	-ly	.	.	.	.	.
.	.	8.G	light	.	.	A	.	.
.	.	8E	we'l	.	.	.	.	.
=11	=11	=11	=11	=11	=11	=11	=11	=11
1GM	G:maj	16D	see	1r	.	B	26.006	.
.	.	16E	_	.	.	.	.	.
.	.	[4.G	_	.	.	.	.	.
.	.	16G]	_	.	.	.	.	.
.	.	16G	my	.	.	.	.	.
.	.	16E	bro-	.	.	.	.	.
.	.	8.G	_	.	.	.	.	.
.	.	8G	-ther:	.	.	.	.	.
=12	=12	=12	=12	=12	=12	=12	=12	=12
1GM	G:maj	2r	.	2r	.	.	28.491	.
.	.	8r	.	8r	.	.	.	.
.	.	4.e	No	8G	No	.	.	.
.	.	.	.	8B	I	.	.	.
.	.	.	.	[8B	won't.	.	.	.
=13	=13	=13	=13	=13	=13	=13	=13	=13
1GM	G:maj	8d	I	4B]	_	.	30.975	newline
.	.	8d	won't	.	.	.	.	.
.	.	8B	_	4r	.	.	.	.
.	.	8B	_	.	.	.	.	.
.	.	4G	_	4r	.	.	.	.
.	.	16r	.	4r	.	.	.	.
.	.	16B	be	.	.	.	.	.
.	.	8d	a-	.	.	.	.	.
=14	=14	=14	=14	=14	=14	=14	=14	=14
1GM	G:maj	8.e	-fraid;	1r	.	.	33.48	.
.	.	[16d	_	.	.	.	.	.
.	.	4d_	_	.	.	.	.	.
.	.	8d]	_	.	.	.	.	.
.	.	4B	_	.	.	.	.	.
.	.	[8A	_	.	.	.	.	.
=15	=15	=15	=15	=15	=15	=15	=15	=15
1Em	E:min	4A]	_	8r	.	.	35.985	.
.	.	.	.	8B	No	.	.	.
.	.	4r	.	8B	I	.	.	.
.	.	.	.	[8A	won't.	.	.	.
.	.	4r	.	4A]	_	.	.	.
.	.	16r	.	4r	.	.	.	.
.	.	16A	be	.	.	.	.	.
.	.	8A	a-	.	.	.	.	.
=16	=16	=16	=16	=16	=16	=16	=16	=16
1Em	E:min	8G	-fraid;	4.r	.	.	38.49	.
.	.	4.E	_	.	.	.	.	.
.	.	.	.	16G	Hmm	.	.	.
.	.	.	.	[16A	_	.	.	.
.	.	4r	.	4A]	_	.	.	.
.	.	8B	just	8G	just	.	.	.
.	.	8B	as	8D	as	.	.	.
=17	=17	=17	=17	=17	=17	=17	=17	=17
1CM	C:maj	2A	long	2E	long.	.	40.995	newline
.	.	4.r	.	2r	.	.	.	.
.	.	8G	as	.	.	.	.	.
=18	=18	=18	=18	=18	=18	=18	=18	=18
1DM	D:maj	4.F#	you	1r	.	.	43.482	.
.	.	8r	.	.	.	.	.	.
.	.	8r	.	.	.	.	.	.
.	.	[8G	stand	.	.	.	.	.
.	.	16G]	_	.	.	.	.	.
.	.	8.G	by	.	.	.	.	.
=19	=19	=19	=19	=19	=19	=19	=19	=19
1GM	G:maj	8E	me.	1r	.	B	45.97	.
.	.	4.D	_	.	.	.	.	.
.	.	2r	.	.	.	.	.	.
=20	=20	=20	=20	=20	=20	=20	=20	=20
1GM	G:maj	1r	.	2r	.	.	48.457	.
.	.	.	.	8r	.	.	.	.
.	.	.	.	[8B	Oh	.	.	.
.	.	.	.	16B]	_	.	.	.
.	.	.	.	16A	_	.	.	.
.	.	.	.	8G	_	.	.	.
=21	=21	=21	=21	=21	=21	=21	=21	=21
*>Letter>B	*>Letter>B	*>Letter>B	*>Letter>B	*>Letter>B	*>Letter>B	*>Letter>B	*>Letter>B	*>Letter>B
*>Label>Chorus	*>Label>Chorus	*>Label>Chorus	*>Label>Chorus	*>Label>Chorus	*>Label>Chorus	*>Label>Chorus	*>Label>Chorus	*>Label>Chorus
1GM	G:maj	2r	.	8.B	stand	.	50.945	newline
.	.	.	.	[16G	_	.	.	.
.	.	.	.	4G]	_	.	.	.
.	.	4r	.	2r	.	.	.	.
.	.	8B	by	.	.	.	.	.
.	.	8B	me	.	.	.	.	.
=22	=22	=22	=22	=22	=22	=22	=22	=22
1GM	G:maj	4G	_	2r	.	.	53.447	.
.	.	4r	.	.	.	.	.	.
.	.	8.B	Woh	8.B	Woh	.	.	.
.	.	[16B	Oh	[16B	oh	.	.	.
.	.	8B]	_	16B]	_	.	.	.
.	.	.	.	16A	_	.	.	.
.	.	16A	_	8G	_	.	.	.
.	.	[16B	_	.	.	.	.	.
=23	=23	=23	=23	=23	=23	=23	=23	=23
1Em	E:min	4B]	_	16D	stand	.	55.95	.
.	.	.	.	[8.E	_	.	.	.
.	.	8r	.	8E]	_	.	.	.
.	.	8G	stand	8r	.	.	.	.
.	.	4E	_	4r	.	.	.	.
.	.	8r	.	8G	by	.	.	.
.	.	[8A	by	8G	me	.	.	.
=24	=24	=24	=24	=24	=24	=24	=24	=24
1Em	E:min	8A]	_	2E	_	.	58.453	.
.	.	4.G	me	.	.	.	.	.
.	.	4r	.	4r	.	.	.	.
.	.	4B	Mmm	8.G	Mmm	.	.	.
.	.	.	.	16D	_	.	.	.
=25	=25	=25	=25	=25	=25	=25	=25	=25
1CM	C:maj	2G	hmm	2E	hmm	.	60.956	newline
.	.	4.r	.	4.r	.	.	.	.
.	.	8B	Ah	8G	Ah	.	.	.
=26	=26	=26	=26	=26	=26	=26	=26	=26
1DM	D:maj	8B	ha	8G	ha	.	63.44	.
.	.	4.A	_	4.F#	_	.	.	.
.	.	4r	.	4r	.	.	.	.
.	.	8G	Stand	8G	Stand	.	.	.
.	.	[8B	by	[8G	by	.	.	.
=27	=27	=27	=27	=27	=27	=27	=27	=27
1GM	G:maj	8B]	_	8G]	_	.	65.923	.
.	.	8A	me	8E	me	.	.	.
.	.	2G	_	2D	_	.	.	.
.	.	4r	.	4r	.	.	.	.
=28	=28	=28	=28	=28	=28	=28	=28	=28
1GM	G:maj	1r	.	4r	.	.	68.407	.
.	.	.	.	4e	Oh	.	.	.
.	.	.	.	4B	_	.	.	.
.	.	.	.	8B	If	.	.	.
.	.	.	.	8d	the	.	.	.
=29	=29	=29	=29	=29	=29	=29	=29	=29
*>Letter>B	*>Letter>B	*>Letter>B	*>Letter>B	*>Letter>B	*>Letter>B	*>Letter>B	*>Letter>B	*>Letter>B
*>Label>Verse	*>Label>Verse	*>Label>Verse	*>Label>Verse	*>Label>Verse	*>Label>Verse	*>Label>Verse	*>Label>Verse	*>Label>Verse
1GM	G:maj	1r	.	[4d	sky	A	70.891	newline
.	.	.	.	16d]	_	.	.	.
.	.	.	.	8e	_	.	.	.
.	.	.	.	16d	_	.	.	.
.	.	.	.	16B	_	.	.	.
.	.	.	.	16r	.	.	.	.
.	.	.	.	8r	.	.	.	.
.	.	.	.	16r	.	.	.	.
.	.	.	.	8B	that	.	.	.
.	.	.	.	[16d	we	.	.	.
=30	=30	=30	=30	=30	=30	=30	=30	=30
1GM	G:maj	1r	.	16d]	_	.	73.384	.
.	.	.	.	8d	look	.	.	.
.	.	.	.	16e	u-	.	.	.
.	.	.	.	4.B	-pon	.	.	.
.	.	.	.	8e	_	.	.	.
.	.	.	.	8e	_	.	.	.
.	.	.	.	16d	_	.	.	.
.	.	.	.	16B	_	.	.	.
=31	=31	=31	=31	=31	=31	=31	=31	=31
1Em	E:min	1r	.	16A	_	.	75.877	.
.	.	.	.	[8.G	_	.	.	.
.	.	.	.	4G]	_	.	.	.
.	.	.	.	16r	.	.	.	.
.	.	.	.	8G	should	.	.	.
.	.	.	.	16G	crum-	.	.	.
.	.	.	.	16A	-ble	.	.	.
.	.	.	.	8B	and	.	.	.
.	.	.	.	[16B	fall	.	.	.
=32	=32	=32	=32	=32	=32	=32	=32	=32
1Em	E:min	1r	.	4.B]	_	.	78.37	.
.	.	.	.	16A	_	.	.	.
.	.	.	.	16B	_	.	.	.
.	.	.	.	4A	_	.	.	.
.	.	.	.	4G	_	.	.	.
=33	=33	=33	=33	=33	=33	=33	=33	=33
1CM	C:maj	8e	or	1r	.	.	80.863	newline
.	.	16g	the	.	.	.	.	.
.	.	[16g	moun-	.	.	.	.	.
.	.	4g_	_	.	.	.	.	.
.	.	8g]	_	.	.	.	.	.
.	.	8e	-tains	.	.	.	.	.
.	.	4r	.	.	.	.	.	.
=34	=34	=34	=34	=34	=34	=34	=34	=34
1DM	D:maj	8.r	.	8r	.	.	83.347	.
.	.	.	.	16G	Mm	.	.	.
.	.	[16g	should	16A	_	.	.	.
.	.	16g]	_	4r	.	.	.	.
.	.	[8.a	crum-	.	.	.	.	.
.	.	16a]	_	2r	.	.	.	.
.	.	16g	-ble	.	.	.	.	.
.	.	4g	down	.	.	.	.	.
.	.	16e	to	.	.	.	.	.
.	.	16d	the	.	.	.	.	.
=35	=35	=35	=35	=35	=35	=35	=35	=35
1GM	G:maj	4e	sea	1r	.	B	85.83	.
.	.	[4B	Oh	.	.	.	.	.
.	.	8B]	_	.	.	.	.	.
.	.	8A	yeah	.	.	.	.	.
.	.	8G	_	.	.	.	.	.
.	.	8r	.	.	.	.	.	.
=36	=36	=36	=36	=36	=36	=36	=36	=36
1GM	G:maj	2r	.	2r	.	.	88.313	.
.	.	8r	.	8r	.	.	.	.
.	.	8.B	I	8.e	I	.	.	.
.	.	8.d	won't	8.g	won't	.	.	.
=37	=37	=37	=37	=37	=37	=37	=37	=37
1GM	G:maj	8.e	cry	8g	cry	A	90.796	newline
.	.	.	.	8e	_	.	.	.
.	.	16d	_	.	.	.	.	.
.	.	4r	.	16r	.	.	.	.
.	.	.	.	16d	I	.	.	.
.	.	.	.	8e	won't	.	.	.
.	.	8r	.	8g	cry	.	.	.
.	.	8.B	I	8e	_	.	.	.
.	.	.	.	16d	I	.	.	.
.	.	8.d	won't	8.e	won't	.	.	.
=38	=38	=38	=38	=38	=38	=38	=38	=38
1GM	G:maj	8e	cry	8e	cry	.	93.274	.
.	.	8r	.	4.B	no	.	.	.
.	.	8.r	.	.	.	.	.	.
.	.	[16e	Oh	.	.	.	.	.
.	.	8e]	_	16A	_	.	.	.
.	.	.	.	8B	_	.	.	.
.	.	8.B	no	.	.	.	.	.
.	.	.	.	8A	_	.	.	.
.	.	8.A	I	8.G	_	.	.	.
=39	=39	=39	=39	=39	=39	=39	=39	=39
1Em	E:min	[4B	won't	1r	.	.	95.751	.
.	.	16B]	_	.	.	.	.	.
.	.	16A	I	.	.	.	.	.
.	.	[8A	won't	.	.	.	.	.
.	.	4A]	_	.	.	.	.	.
.	.	4A	shed	.	.	.	.	.
=40	=40	=40	=40	=40	=40	=40	=40	=40
1Em	E:min	8A	a	2r	.	.	98.228	.
.	.	8G	tear	.	.	.	.	.
.	.	8E	_	.	.	.	.	.
.	.	8r	.	.	.	.	.	.
.	.	4r	.	4r	.	.	.	.
.	.	8B	as	8d	Just	.	.	.
.	.	[8B	long	8d	as	.	.	.
=41	=41	=41	=41	=41	=41	=41	=41	=41
1CM	C:maj	8B]	_	2c	long	.	100.705	newline
.	.	4.A	_	.	.	.	.	.
.	.	4r	.	4.r	.	.	.	.
.	.	4A	as	.	.	.	.	.
.	.	.	.	8e	as	.	.	.
=42	=42	=42	=42	=42	=42	=42	=42	=42
1DM	D:maj	4a	you	[2cc	you	.	103.181	.
.	.	[4g	_	.	.	.	.	.
.	.	8g]	_	8cc]	_	.	.	.
.	.	8.B	stand	8.d	stand	.	.	.
.	.	8.B	by	8.d	by	.	.	.
=43	=43	=43	=43	=43	=43	=43	=43	=43
1GM	G:maj	8A	me	8c	me	B	105.657	.
.	.	4.G	_	4.B	_	.	.	.
.	.	2r	.	2r	.	.	.	.
=44	=44	=44	=44	=44	=44	=44	=44	=44
1GM	G:maj	8r	.	8r	.	.	108.132	.
.	.	8d	Don't	8g	Don't	.	.	.
.	.	8e	you	8a	you	.	.	.
.	.	[8g	worry	[8b	wor-	.	.	.
.	.	8g]	_	16b]	_	.	.	.
.	.	.	.	16b	-ry	.	.	.
.	.	8e	and	8r	.	.	.	.
.	.	4r	.	4g	Oh!	.	.	.
=45	=45	=45	=45	=45	=45	=45	=45	=45
*>Letter>B	*>Letter>B	*>Letter>B	*>Letter>B	*>Letter>B	*>Letter>B	*>Letter>B	*>Letter>B	*>Letter>B
*>Label>Chorus	*>Label>Chorus	*>Label>Chorus	*>Label>Chorus	*>Label>Chorus	*>Label>Chorus	*>Label>Chorus	*>Label>Chorus	*>Label>Chorus
1GM	G:maj	4g	Stand	1r	.	.	110.608	newline
.	.	4r	.	.	.	.	.	.
.	.	4r	.	.	.	.	.	.
.	.	8r	.	.	.	.	.	.
.	.	[8e	by	.	.	.	.	.
=46	=46	=46	=46	=46	=46	=46	=46	=46
1GM	G:maj	16e]	_	2r	.	.	113.067	.
.	.	16f	_	.	.	.	.	.
.	.	[8e	_	.	.	.	.	.
.	.	8e]	_	.	.	.	.	.
.	.	[8d	me	.	.	.	.	.
.	.	16d]	_	8r	.	.	.	.
.	.	16e	_	.	.	.	.	.
.	.	8r	.	4.a	Oh	.	.	.
.	.	4e	Oh	.	.	.	.	.
=47	=47	=47	=47	=47	=47	=47	=47	=47
1Em	E:min	8e	stand	8g	stand	.	115.525	.
.	.	8B	_	8e	_	.	.	.
.	.	4r	.	4r	.	.	.	.
.	.	4r	.	4r	.	.	.	.
.	.	8A	by	[4c	by	.	.	.
.	.	16B	_	.	.	.	.	.
.	.	[16A	_	.	.	.	.	.
=48	=48	=48	=48	=48	=48	=48	=48	=48
1Em	E:min	8A]	_	8c]	_	.	117.983	.
.	.	8G	me	4.B	me	.	.	.
.	.	4r	.	.	.	.	.	.
.	.	2r	.	8r	.	.	.	.
.	.	.	.	8.B	Oh	.	.	.
.	.	.	.	8a	hoo	.	.	.
.	.	.	.	16b	_	.	.	.
=49	=49	=49	=49	=49	=49	=49	=49	=49
1CM	C:maj	2r	.	[4a	_	.	120.442	newline
.	.	.	.	16a]	_	.	.	.
.	.	.	.	[8.g	_	.	.	.
.	.	4r	.	4g]	_	.	.	.
.	.	[4B	Oh	4r	.	.	.	.
=50	=50	=50	=50	=50	=50	=50	=50	=50
1DM	D:maj	8B]	_	8r	.	.	122.877	.
.	.	8A	stand	[8e	stand	.	.	.
.	.	8.E	_	16e]	_	.	.	.
.	.	.	.	[8.d	_	.	.	.
.	.	16D	_	.	.	.	.	.
.	.	2r	.	8d]	_	.	.	.
.	.	.	.	8e	_	.	.	.
.	.	.	.	4r	.	.	.	.
=51	=51	=51	=51	=51	=51	=51	=51	=51
1GM	G:maj	8.r	.	8d	Stand	.	125.312	.
.	.	.	.	16e	by	.	.	.
.	.	16A	Oh	16d	_	.	.	.
.	.	4.B	_	8B	_	.	.	.
.	.	.	.	16A	_	.	.	.
.	.	.	.	[16G	_	.	.	.
.	.	.	.	16G]	_	.	.	.
.	.	.	.	8B	_	.	.	.
.	.	4.A	yeah	.	.	.	.	.
.	.	.	.	16r	.	.	.	.
.	.	.	.	4r	.	.	.	.
=52	=52	=52	=52	=52	=52	=52	=52	=52
1GM	G:maj	4G	yeah	4.r	.	.	127.747	.
.	.	4r	.	.	.	.	.	.
.	.	.	.	[8A	Mmm	.	.	.
.	.	2r	.	16A]	_	.	.	.
.	.	.	.	16B	_	.	.	.
.	.	.	.	[8A	_	.	.	.
.	.	.	.	16A]	_	.	.	.
.	.	.	.	[8.G	hmm	.	.	.
=53	=53	=53	=53	=53	=53	=53	=53	=53
*>Letter>B	*>Letter>B	*>Letter>B	*>Letter>B	*>Letter>B	*>Letter>B	*>Letter>B	*>Letter>B	*>Letter>B
*>Label>Interlude	*>Label>Interlude	*>Label>Interlude	*>Label>Interlude	*>Label>Interlude	*>Label>Interlude	*>Label>Interlude	*>Label>Interlude	*>Label>Interlude
1GM	G:maj	8r	.	8G]	_	.	130.183	newline
.	.	16D	yeah	16D	yeah	.	.	.
.	.	16E	_	16E	_	.	.	.
.	.	4G	_	4G	_	.	.	.
.	.	2r	.	2r	.	.	.	.
=54	=54	=54	=54	=54	=54	=54	=54	=54
1GM	G:maj	1r	.	4r	.	.	132.656	.
.	.	.	.	16B	Da-	.	.	.
.	.	.	.	8d	-vid	.	.	.
.	.	.	.	[16d	stand	.	.	.
.	.	.	.	16d]	_	.	.	.
.	.	.	.	8e	by	.	.	.
.	.	.	.	8B	my	.	.	.
.	.	.	.	[8.B	side	A	.	.
=55	=55	=55	=55	=55	=55	=55	=55	=55
1Em	E:min	1r	.	8B]	_	.	135.129	.
.	.	.	.	16A	_	.	.	.
.	.	.	.	16B	_	.	.	.
.	.	.	.	8A	_	.	.	.
.	.	.	.	4.G	_	.	.	.
.	.	.	.	4r	.	.	.	.
=56	=56	=56	=56	=56	=56	=56	=56	=56
1Em	E:min	4r	.	1r	.	.	137.601	.
.	.	8r	.	.	.	.	.	.
.	.	16B	ev-	.	.	.	.	.
.	.	16d	-e-	.	.	.	.	.
.	.	16e	-ry	.	.	.	.	.
.	.	8g	once	.	.	.	.	.
.	.	16e	in	.	.	.	.	.
.	.	16d	a	.	.	.	.	.
.	.	8.e	while	.	.	.	.	.
=57	=57	=57	=57	=57	=57	=57	=57	=57
1CM	C:maj	8B	_	1r	.	.	140.074	newline
.	.	8B	I	.	.	.	.	.
.	.	16B	might	.	.	.	.	.
.	.	8B	need	.	.	.	.	.
.	.	16B	a	.	.	.	.	.
.	.	16A	ride	.	.	A	.	.
.	.	16G	_	.	.	.	.	.
.	.	8E	_	.	.	.	.	.
.	.	4r	.	.	.	.	.	.
=58	=58	=58	=58	=58	=58	=58	=58	=58
1DM	D:maj	8r	.	1r	.	.	142.55	.
.	.	4.e	Oh	.	.	.	.	.
.	.	16d	come	.	.	.	.	.
.	.	16e	on	.	.	.	.	.
.	.	8B	and	.	.	.	.	.
.	.	4B	stand	.	.	.	.	.
=59	=59	=59	=59	=59	=59	=59	=59	=59
1GM	G:maj	4r	.	8r	.	.	145.026	.
.	.	.	.	16~e	Look-	.	.	.
.	.	.	.	16~e	-a	.	.	.
.	.	4A	stand	4~d	here	.	.	.
.	.	16r	.	2r	.	.	.	.
.	.	8.B	stand	.	.	.	.	.
.	.	8.A	by	.	.	.	.	.
.	.	16G	me	.	.	.	.	.
=60	=60	=60	=60	=60	=60	=60	=60	=60
1GM	G:maj	16E	_	16r	.	.	147.502	.
.	.	16D	_	16e	If	.	.	.
.	.	8r	.	16e	you're	.	.	.
.	.	.	.	[16a	e-	.	.	.
.	.	4r	.	8a]	_	.	.	.
.	.	.	.	16g	-ver	.	.	.
.	.	.	.	[16g	in	.	.	.
.	.	2r	.	16g]	_	.	.	.
.	.	.	.	8g	trou-	.	.	.
.	.	.	.	16e	-ble	.	.	.
.	.	.	.	4r	.	.	.	.
=61	=61	=61	=61	=61	=61	=61	=61	=61
1GM	G:maj	2r	.	1r	.	.	149.978	newline
.	.	8B	Stand	.	.	.	.	.
.	.	4e	by	.	.	.	.	.
.	.	[8d	me	.	.	.	.	.
=62	=62	=62	=62	=62	=62	=62	=62	=62
1GM	G:maj	8d]	_	8r	.	.	152.445	.
.	.	8e	_	8b	Da-	.	.	.
.	.	4r	.	16a	-vid	.	.	.
.	.	.	.	16g	just	.	.	.
.	.	.	.	8r	.	.	.	.
.	.	2r	.	16a	look	.	.	.
.	.	.	.	8.g	o-	.	.	.
.	.	.	.	16e	-ver	.	.	.
.	.	.	.	16d	your	.	.	.
.	.	.	.	8e	shou-	.	.	.
=63	=63	=63	=63	=63	=63	=63	=63	=63
1Em	E:min	4r	.	16g	-lder	.	154.912	.
.	.	.	.	16r	.	.	.	.
.	.	.	.	8r	.	.	.	.
.	.	8r	.	4r	.	.	.	.
.	.	4e	I'll	.	.	.	.	.
.	.	.	.	2r	.	.	.	.
.	.	8B	be	.	.	.	.	.
.	.	16B	stan-	.	.	.	.	.
.	.	16B	-din'	.	.	.	.	.
.	.	[8B	there	.	.	.	.	.
=64	=64	=64	=64	=64	=64	=64	=64	=64
1Em	E:min	8B]	_	2r	.	.	157.379	.
.	.	16A	_	.	.	.	.	.
.	.	16B	_	.	.	.	.	.
.	.	8A	_	.	.	.	.	.
.	.	8G	_	.	.	.	.	.
.	.	2r	.	4r	.	.	.	.
.	.	.	.	16r	.	.	.	.
.	.	.	.	16d	You	.	.	.
.	.	.	.	16e	gon-	.	.	.
.	.	.	.	16e	-na'	.	.	.
=65	=65	=65	=65	=65	=65	=65	=65	=65
1CM	C:maj	2r	.	8.g	find	.	159.846	newline
.	.	.	.	16e	me	.	.	.
.	.	.	.	4r	.	.	.	.
.	.	8.g	stand-	4.r	.	.	.	.
.	.	16e	-ing	.	.	.	.	.
.	.	4r	.	.	.	.	.	.
.	.	.	.	8~a	stand-	.	.	.
=66	=66	=66	=66	=66	=66	=66	=66	=66
1DM	D:maj	4.r	.	4e	-ing	.	162.295	.
.	.	.	.	4r	.	.	.	.
.	.	16r	.	.	.	.	.	.
.	.	[16B	Stand-	.	.	.	.	.
.	.	16B]	_	8r	.	.	.	.
.	.	16d	-ing	.	.	.	.	.
.	.	8e	right	8g	Stand-	.	.	.
.	.	8.B	there	16e	-ing	.	.	.
.	.	.	.	8g	right	.	.	.
.	.	16A	by	[16e	there	.	.	.
=67	=67	=67	=67	=67	=67	=67	=67	=67
1GM	G:maj	[4B	your	8e]	_	.	164.745	.
.	.	.	.	8r	.	.	.	.
.	.	16B]	_	4r	.	.	.	.
.	.	16A	side	.	.	.	.	.
.	.	16G	_	.	.	.	.	.
.	.	16E	_	.	.	.	.	.
.	.	2r	.	2r	.	.	.	.
=68	=68	=68	=68	=68	=68	=68	=68	=68
1GM	G:maj	8r	.	8r	.	.	167.195	.
.	.	8d	Don't	8g	Don't	.	.	.
.	.	8e	you	8a	you	.	.	.
.	.	[8g	wor-	[8b	wor-	.	.	.
.	.	8g]	_	8b]	_	.	.	.
.	.	4e	-ry	4g	-ry	.	.	.
.	.	8r	.	8r	.	.	.	.
=69	=69	=69	=69	=69	=69	=69	=69	=69
*>Letter>B	*>Letter>B	*>Letter>B	*>Letter>B	*>Letter>B	*>Letter>B	*>Letter>B	*>Letter>B	*>Letter>B
*>Label>Chorus	*>Label>Chorus	*>Label>Chorus	*>Label>Chorus	*>Label>Chorus	*>Label>Chorus	*>Label>Chorus	*>Label>Chorus	*>Label>Chorus
1GM	G:maj	4g	Stand	4b	Stand	.	169.645	newline
.	.	4r	.	4r	.	.	.	.
.	.	4r	.	4r	.	.	.	.
.	.	8g	by	16r	.	.	.	.
.	.	.	.	8b	by	.	.	.
.	.	[8g	me	.	.	.	.	.
.	.	.	.	[16b	me	.	.	.
=70	=70	=70	=70	=70	=70	=70	=70	=70
1GM	G:maj	4g]	_	4b]	_	.	172.1	.
.	.	4r	.	4r	.	.	.	.
.	.	8r	.	4r	.	.	.	.
.	.	16g	ma-	.	.	.	.	.
.	.	8.e	-ma	.	.	.	.	.
.	.	.	.	4a	Oh	.	.	.
.	.	8r	.	.	.	.	.	.
=71	=71	=71	=71	=71	=71	=71	=71	=71
1Em	E:min	2r	.	8g	stand	.	174.556	.
.	.	.	.	8e	_	.	.	.
.	.	.	.	4r	.	.	.	.
.	.	4r	.	4r	.	.	.	.
.	.	8.A	by	4r	.	.	.	.
.	.	[16G	me	.	.	.	.	.
=72	=72	=72	=72	=72	=72	=72	=72	=72
1Em	E:min	16G]	_	2r	.	.	177.012	.
.	.	16E	_	.	.	.	.	.
.	.	8r	.	.	.	.	.	.
.	.	4r	.	.	.	.	.	.
.	.	2r	.	4r	.	.	.	.
.	.	.	.	4b	Ooh	.	.	.
=73	=73	=73	=73	=73	=73	=73	=73	=73
1CM	C:maj	16~g	Come	2a	_	.	179.467	newline
.	.	8.~e	on!	.	.	.	.	.
.	.	4r	.	.	.	.	.	.
.	.	4r	.	2r	.	.	.	.
.	.	16d	Uh	.	.	.	.	.
.	.	16e	_	.	.	.	.	.
.	.	8r	.	.	.	.	.	.
=74	=74	=74	=74	=74	=74	=74	=74	=74
1DM	D:maj	16~g	come	4r	.	.	181.914	.
.	.	8.~e	on!	.	.	.	.	.
.	.	4r	.	8r	.	.	.	.
.	.	.	.	8g	Stand	.	.	.
.	.	4r	.	4e	_	.	.	.
.	.	16e	Stand	4r	.	.	.	.
.	.	8g	up	.	.	.	.	.
.	.	[16g	by	.	.	.	.	.
=75	=75	=75	=75	=75	=75	=75	=75	=75
1GM	G:maj	16g]	_	4r	.	.	184.361	.
.	.	16e	me	.	.	.	.	.
.	.	8r	.	.	.	.	.	.
.	.	4r	.	8.r	.	.	.	.
.	.	.	.	[16B	Stand	.	.	.
.	.	2r	.	16B]	_	.	.	.
.	.	.	.	8.A	by	.	.	.
.	.	.	.	16G	me	.	.	.
.	.	.	.	16r	.	.	.	.
.	.	.	.	8r	.	.	.	.
=76	=76	=76	=76	=76	=76	=76	=76	=76
1GM	G:maj	[2b	Ooh	4.r	.	.	186.807	.
.	.	.	.	[4b	Ooh	.	.	.
.	.	8b]	_	.	.	.	.	.
.	.	16a	_	16a	_	.	.	.
.	.	[16g	_	[16g	_	.	.	.
.	.	4g]	_	4g]	_	.	.	.
=77	=77	=77	=77	=77	=77	=77	=77	=77
*>Letter>B	*>Letter>B	*>Letter>B	*>Letter>B	*>Letter>B	*>Letter>B	*>Letter>B	*>Letter>B	*>Letter>B
*>Label>Outro	*>Label>Outro	*>Label>Outro	*>Label>Outro	*>Label>Outro	*>Label>Outro	*>Label>Outro	*>Label>Outro	*>Label>Outro
1GM	G:maj	4g	Stand	4r	.	.	189.254	newline
.	.	4r	.	4g	Stand	.	.	.
.	.	8g	Stand	4r	.	.	.	.
.	.	8e	_	.	.	.	.	.
.	.	4r	.	8g	by	.	.	.
.	.	.	.	8g	me	.	.	.
=78	=78	=78	=78	=78	=78	=78	=78	=78
1GM	G:maj	8r	.	8e	_	.	191.69	.
.	.	4e	Oh	8r	.	.	.	.
.	.	.	.	8e	come	.	.	.
.	.	8e	come	8e	on	.	.	.
.	.	8.f#	by	4r	.	.	.	.
.	.	16e	m-	.	.	.	.	.
.	.	8r	.	4a	Oh	.	.	.
.	.	[8e	-e	.	.	.	.	.
=79	=79	=79	=79	=79	=79	=79	=79	=79
1Em	E:min	8e]	_	8g	stand	.	194.125	.
.	.	8r	.	8e	_	.	.	.
.	.	[4B	Oh	8r	.	.	.	.
.	.	.	.	8g	and	.	.	.
.	.	16B]	_	8g	stand	.	.	.
.	.	16A	_	.	.	.	.	.
.	.	16B	_	4g	by	.	.	.
.	.	[16A	_	.	.	.	.	.
.	.	8A]	_	.	.	.	.	.
.	.	8B	x	8g	me	.	.	.
=80	=80	=80	=80	=80	=80	=80	=80	=80
1Em	E:min	8B	x	8g	_	.	196.561	.
.	.	8d	right	8r	.	.	.	.
.	.	16e	by	4r	.	.	.	.
.	.	8B	my	.	.	.	.	.
.	.	[16B	side	.	.	.	.	.
.	.	8B]	_	8r	.	.	.	.
.	.	16A	_	8e	X	.	.	.
.	.	16B	_	.	.	.	.	.
.	.	8A	_	4a	x	.	.	.
.	.	8G	_	.	.	.	.	.
=81	=81	=81	=81	=81	=81	=81	=81	=81
1CM	C:maj	4.r	.	8g	x	.	198.996	newline
.	.	.	.	8r	.	.	.	.
.	.	.	.	8r	.	.	.	.
.	.	8r	.	8g	Stand	.	.	.
.	.	2r	.	4e	_	.	.	.
.	.	.	.	4r	.	.	.	.
=82	=82	=82	=82	=82	=82	=82	=82	=82
1DM	D:maj	2r	.	8g	Stand	.	201.425	.
.	.	.	.	8e	_	.	.	.
.	.	.	.	4r	.	.	.	.
.	.	4r	.	2r	.	.	.	.
.	.	[4B	By	.	.	.	.	.
=83	=83	=83	=83	=83	=83	=83	=83	=83
1GM	G:maj	8B]	_	4r	.	.	203.854	.
.	.	16A	me	.	.	.	.	.
.	.	16G	_	.	.	.	.	.
.	.	16E	_	8g	Stand	.	.	.
.	.	16r	.	.	.	.	.	.
.	.	8r	.	8g	by	.	.	.
.	.	2r	.	8e	me	.	.	.
.	.	.	.	8r	.	.	.	.
.	.	.	.	4r	.	.	.	.
=84	=84	=84	=84	=84	=84	=84	=84	=84
1GM	G:maj	1r	.	1r	.	.	206.283	.
=85	=85	=85	=85	=85	=85	=85	=85	=85
1GM	G:maj	2r	.	4r	.	.	208.713	newline
.	.	.	.	4g	Yeah!	.	.	.
.	.	8e	Stand	2r	.	.	.	.
.	.	8e	by	.	.	.	.	.
.	.	4r	.	.	.	.	.	.
=86	=86	=86	=86	=86	=86	=86	=86	=86
1GM	G:maj	4.r	.	2r	.	.	211.142	.
.	.	8B	Woh	.	.	.	.	.
.	.	16d	_	8g	Come	.	.	.
.	.	[8.e	_	.	.	.	.	.
.	.	.	.	4g	on	.	.	.
.	.	8e]	_	.	.	.	.	.
.	.	8B	oh	8~e	yeah	.	.	.
=87	=87	=87	=87	=87	=87	=87	=87	=87
1Em	E:min	2r	.	4r	.	.	213.571	.
.	.	.	.	4g	Yeah!	.	.	.
.	.	8g	Stand	2r	.	.	.	.
.	.	8.g	by	.	.	.	.	.
.	.	8.e	me	.	.	.	.	.
=88	=88	=88	=88	=88	=88	=88	=88	=88
1Em	E:min	1r	.	1r	.	.	216.001	.
=89	=89	=89	=89	=89	=89	=89	=89	=89
1CM	C:maj	1r	.	1r	.	.	218.43	newline
=90	=90	=90	=90	=90	=90	=90	=90	=90
1DM	D:maj	1r	.	1r	.	.	220.932	.
=91	=91	=91	=91	=91	=91	=91	=91	=91
1GM	G:maj	1r	.	1r	.	.	223.434	.
=92	=92	=92	=92	=92	=92	=92	=92	=92
1GM	G:maj	1r	.	1r	.	.	225.936	.
1r;	1r	r;	.	r;	.	.	228.438	.
1r;	1r	r;	.	r;	.	.	228.702	.
*-	*-	*-	*-	*-	*-	*-	*-	*-
!!!BillboardChartDate: 1970/11/28
!!!BillboardPeak: 61
!!!BillboardWeeksOnChart: 7
!!!COC: David Ruffin & Jimmy Ruffin
!!!ENC: Nathaniel Condit-Schultz
!!!EST: Awating manual error checking and editing.
!!!OTL: Stand By Me
!!!RDF**chordsym: original McGill chord annotation + (implied pitch class set, with bass pitch in first position)
!!!RDF**harmony: **recip + pitch class of root + harmonic quality
!!!RDF**leadinstrument: original McGill primary instrumentation annotation
!!!RDF**phrase: newline = linebreak in original McGill transcription
!!!RDF**timestamp: McGill audio timestamp in seconds
!!!RDT: 2017/01/12/
!!!SampleActualRank: 61
!!!SampleID#: 0119
!!!SampleTargetRank: 61
!!!MBID: 7e18e389-5cae-4358-ad53-9a6e4d0e309a
